img/svgicons/points-5.svg

<svg width="106" height="18" viewBox="0 0 106 18" fill="none" xmlns="http://www.w3.org/2000/svg">
<path d="M8.08155 2.13274C8.42863 1.32678 9.57137 1.32678 9.91845 2.13274L11.1986 5.10531C11.3433 5.44148 11.6602 5.6717 12.0247 5.70551L15.2473 6.0044C16.1211 6.08544 16.4742 7.17225 15.815 7.7514L13.3835 9.88744C13.1085 10.129 12.9875 10.5015 13.0679 10.8586L13.7795 14.0159C13.9725 14.8719 13.048 15.5436 12.2934 15.0956L9.51056 13.4432C9.19584 13.2563 8.80416 13.2563 8.48944 13.4432L5.70657 15.0956C4.95204 15.5436 4.02755 14.8719 4.22048 14.0159L4.93207 10.8586C5.01255 10.5015 4.89152 10.129 4.61653 9.88744L2.18503 7.7514C1.52577 7.17225 1.8789 6.08544 2.75267 6.0044L5.97532 5.70551C6.33978 5.6717 6.65665 5.44148 6.80143 5.10531L8.08155 2.13274Z" fill="#FF3E18"/>
<path d="M30.0815 2.13274C30.4286 1.32678 31.5714 1.32678 31.9185 2.13274L33.1986 5.10531C33.3433 5.44148 33.6602 5.6717 34.0247 5.70551L37.2473 6.0044C38.1211 6.08544 38.4742 7.17225 37.815 7.7514L35.3835 9.88744C35.1085 10.129 34.9875 10.5015 35.0679 10.8586L35.7795 14.0159C35.9725 14.8719 35.048 15.5436 34.2934 15.0956L31.5106 13.4432C31.1958 13.2563 30.8042 13.2563 30.4894 13.4432L27.7066 15.0956C26.952 15.5436 26.0275 14.8719 26.2205 14.0159L26.9321 10.8586C27.0125 10.5015 26.8915 10.129 26.6165 9.88744L24.185 7.7514C23.5258 7.17225 23.8789 6.08544 24.7527 6.0044L27.9753 5.70551C28.3398 5.6717 28.6567 5.44148 28.8014 5.10531L30.0815 2.13274Z" fill="#FF3E18"/>
<path d="M52.0815 2.13274C52.4286 1.32678 53.5714 1.32678 53.9185 2.13274L55.1986 5.10531C55.3433 5.44148 55.6602 5.6717 56.0247 5.70551L59.2473 6.0044C60.1211 6.08544 60.4742 7.17225 59.815 7.7514L57.3835 9.88744C57.1085 10.129 56.9875 10.5015 57.0679 10.8586L57.7795 14.0159C57.9725 14.8719 57.048 15.5436 56.2934 15.0956L53.5106 13.4432C53.1958 13.2563 52.8042 13.2563 52.4894 13.4432L49.7066 15.0956C48.952 15.5436 48.0275 14.8719 48.2205 14.0159L48.9321 10.8586C49.0125 10.5015 48.8915 10.129 48.6165 9.88744L46.185 7.7514C45.5258 7.17225 45.8789 6.08544 46.7527 6.0044L49.9753 5.70551C50.3398 5.6717 50.6567 5.44148 50.8014 5.10531L52.0815 2.13274Z" fill="#FF3E18"/>
<path d="M74.0815 2.13274C74.4286 1.32678 75.5714 1.32678 75.9185 2.13274L77.1986 5.10531C77.3433 5.44148 77.6602 5.6717 78.0247 5.70551L81.2473 6.0044C82.1211 6.08544 82.4742 7.17225 81.815 7.7514L79.3835 9.88744C79.1085 10.129 78.9875 10.5015 79.0679 10.8586L79.7795 14.0159C79.9725 14.8719 79.048 15.5436 78.2934 15.0956L75.5106 13.4432C75.1958 13.2563 74.8042 13.2563 74.4894 13.4432L71.7066 15.0956C70.952 15.5436 70.0275 14.8719 70.2205 14.0159L70.9321 10.8586C71.0125 10.5015 70.8915 10.129 70.6165 9.88744L68.185 7.7514C67.5258 7.17225 67.8789 6.08544 68.7527 6.0044L71.9753 5.70551C72.3398 5.6717 72.6567 5.44148 72.8014 5.10531L74.0815 2.13274Z" fill="#FF3E18"/>
<path d="M96.0815 2.13274C96.4286 1.32678 97.5714 1.32678 97.9185 2.13274L99.1986 5.10531C99.3433 5.44148 99.6602 5.6717 100.025 5.70551L103.247 6.0044C104.121 6.08544 104.474 7.17225 103.815 7.7514L101.383 9.88744C101.108 10.129 100.987 10.5015 101.068 10.8586L101.78 14.0159C101.972 14.8719 101.048 15.5436 100.293 15.0956L97.5106 13.4432C97.1958 13.2563 96.8042 13.2563 96.4894 13.4432L93.7066 15.0956C92.952 15.5436 92.0275 14.8719 92.2205 14.0159L92.9321 10.8586C93.0125 10.5015 92.8915 10.129 92.6165 9.88744L90.185 7.7514C89.5258 7.17225 89.8789 6.08544 90.7527 6.0044L93.9753 5.70551C94.3398 5.6717 94.6567 5.44148 94.8014 5.10531L96.0815 2.13274Z" fill="#FF3E18"/>
</svg>

<svg width="106" height="18" fill="none" xmlns="http://www.w3.org/2000/svg"><path d="M8.082 2.133c.347-.806 1.49-.806 1.836 0l1.28 2.972a1 1 0 00.827.6l3.222.3c.874.08 1.227 1.167.568 1.746l-2.431 2.136a1 1 0 00-.316.972l.712 3.157c.193.856-.732 1.528-1.487 1.08l-2.782-1.653a1 1 0 00-1.022 0l-2.782 1.653c-.755.448-1.68-.224-1.487-1.08l.712-3.157a1 1 0 00-.315-.972L2.185 7.751c-.66-.579-.306-1.666.568-1.747l3.222-.298a1 1 0 00.826-.6l1.28-2.973zm21.999 0c.348-.806 1.49-.806 1.838 0l1.28 2.972a1 1 0 00.826.6l3.222.3c.874.08 1.227 1.167.568 1.746l-2.431 2.136a1 1 0 00-.316.972l.712 3.157c.192.856-.732 1.528-1.487 1.08l-2.782-1.653a1 1 0 00-1.022 0l-2.782 1.653c-.755.448-1.68-.224-1.486-1.08l.711-3.157a1 1 0 00-.316-.972l-2.431-2.136c-.66-.579-.306-1.666.568-1.747l3.222-.298a1 1 0 00.826-.6l1.28-2.973zm22 0c.348-.806 1.49-.806 1.837 0l1.28 2.972a1 1 0 00.827.6l3.222.3c.874.08 1.227 1.167.568 1.746l-2.431 2.136a1 1 0 00-.316.972l.712 3.157c.192.856-.732 1.528-1.487 1.08l-2.782-1.653a1 1 0 00-1.022 0l-2.782 1.653c-.755.448-1.68-.224-1.486-1.08l.711-3.157a1 1 0 00-.316-.972l-2.431-2.136c-.66-.579-.306-1.666.568-1.747l3.222-.298a1 1 0 00.826-.6l1.28-2.973zm22.001 0c.347-.806 1.49-.806 1.837 0l1.28 2.972a1 1 0 00.826.6l3.222.3c.874.08 1.227 1.167.568 1.746l-2.431 2.136a1 1 0 00-.316.972l.712 3.157c.192.856-.732 1.528-1.487 1.08l-2.782-1.653a1 1 0 00-1.022 0l-2.782 1.653c-.755.448-1.68-.224-1.486-1.08l.711-3.157a1 1 0 00-.316-.972l-2.431-2.136c-.66-.579-.306-1.666.568-1.747l3.222-.298a1 1 0 00.826-.6l1.28-2.973zm22 0c.347-.806 1.49-.806 1.837 0l1.28 2.972a1 1 0 00.826.6l3.222.3c.874.08 1.227 1.167.568 1.746l-2.432 2.136a.999.999 0 00-.315.972l.712 3.157c.192.856-.732 1.528-1.487 1.08l-2.782-1.653a1 1 0 00-1.022 0l-2.782 1.653c-.755.448-1.68-.224-1.486-1.08l.711-3.157a1 1 0 00-.316-.972l-2.431-2.136c-.66-.579-.306-1.666.568-1.747l3.222-.298a1 1 0 00.826-.6l1.28-2.973z" fill="#FF3E18"/></svg>
